X:55
T: MUEDE KEHRT EIN WANDERER ZURUECK
N: E0672
O: Europa, Mitteleuropa, Deutschland, Hessen, Dill - Kreis
R: Liebes - Lied
M: 4/4
L: 1/8
K: G
DD | B3AGFGB | D4z2
DF | A3GFAdc | B4z2
GA | B3dcBAG | E4z
cBA | D3GFAed | B4z2
GA | B3dcBAG | E4z
cBA | D3GFAed | G4z2

